!!!SOCIAL_FUNCTION:	winter dance songs
!!!PDT:	1957
!!!OTL: No_24_Winter_Dance_Song_(b).krn
!!!LING_GROUP: Keresan
!!!LANG: Tone
!!!REG: Southwest
**kern
*staff1
=1-
*clefF4
*k[b-e-a-d-g-]
*M3/4
8A-\L
8A-\J
4A-\
4A-\
=2
8d-\L
8B-\J
8.B-\L
16e-\Jk
8.e-\L
16d-\Jk
=3
*M2/4
4e-\
4e-\
=4
*M3/4
8d-\L
8B-\J
8.B-\L
16e-\Jk
8.e-\L
16d-\Jk
=5
*M2/4
4e-\
4e-\
=6
4e-\
8d-\L
8B-\J
=7
4d-\
4d-\
=8
*M3/4
8e-\L
8B-\J
8d-\L
8B-\J
8B-\L
16B-\L
16F\JJ
=9
*M2/4
4B-\
8B-\
8r
=10
*M3/4
8d-\L
8B-\J
8B-\L
8F\J
8F\L
16F\L
16D-\JJ
=11
*M2/4
4F\
8F\L
8F\J
=12
*M3/4
4D-\
2r
=13!|:
8d-\L
8B-\J
8.B-\L
16e-\Jk
8.e-\L
16d-\Jk
=14
*M2/4
4e-\
4e-\
=15
*M3/4
8d-\L
8B-\J
8.B-\L
16e-\Jk
8.e-\L
16d-\Jk
=16
4e-\
4e-\
8e-\
8r
=17
*M2/4
4f\
12gn\L
12f\
12e-\J
=18
4f\
12gn\L
12f\
12e-\J
=19
4..f\
16e-\
=20
2f\
=21
8f\L
8gn\J
8f\L
8dn\J
=22
4e-\
8.e-\L
16dn\Jk
=23
4e-\
8.e-\L
16dn\Jk
=24
4e-\
4e-\
=25
8e-\L
8f\J
8e-\L
8d-\J
=26
4e-\
12e-\L
12d-\
12B-\J
=27
4B-\
8B-\
8r
=28
8d-\L
8B-\J
8F\L
8F\J
=29
4B-\
4B-\
=30
4B-\
4r
=31:|!
=
8B-\
8r
8.r
16B-\
=32
4g-\
12f\L
12e-\
12e-\J
=33
4e-\
4e-\
=34
4f\
12e-\L
12B-\
12B-\J
=35
*M3/4
4B-\
4B-\
4B-\
=36
*M2/4
4e-\
8.e-\L
16dn\Jk
=37
4e-\
8.e-\L
16dn\Jk
=38
4e-\
8e-\
8r
=39
4gn\
12f\L
12e-\
12e-\J
=40
4e-\
4e-\
=41
4f\
12e-\L
12B-\
12B-\J
=42
4B-\
4B-\
=43
4e-\
12e-\L
12d-\
12d-\J
=44
4e-\
8.e-\L
16dn\Jk
=45
4e-\
8e-\
8r
=46
*M3/4
8e-\L
8e-\J
8e-\L
8e-\J
16f\LL
16e-\J
8e-\J
=47
*M7/8
16f\LL
16e-\J
8d-\
8d-\
8B-\
8B-\
8B-\J
8r
=48
*M2/4
4e-\
4e-\
=49
!!pagebreak:default
12f\L
12e-\
12d-\J
4d-\
=50
4B-\
4F\
=51
12B-\L
12F\
12E-\J
8E-\L
8E-\J
=52
4E-\
4E-\
=53
*M3/4
12F\L
12E-\
12E-\J
4E-\
4E-\
=54
4E-\
8E-\
8r
4r
==
*-
